X: 13135
T: First Grandchild
R: reel
M: 4/4
K: Ddorian
ad d2 edcA|Bege cAAG|EAcA FAdA|cBAB GEEF|
D2 FA d^cde|fdfg agfe|fdad ecgc|AcGE ED D2:|
d2 cd AGFE|DEGA cG G2|Ad (3dcd ad (3dcd|edAB c3 c|
d2 ^fd edfd|cdeg aecA|D2 ^FA D2 =FA|GcGE D4:|

